!!!COM:	Martini, Johannes
!!!CDT:	~1440///-~1497//
!!!OPR:	Missa Ma bouche rit
!!!ONM:	1
!!!OTL:	Kyrie
!!!AGN:	Mass; Kyrie
!!!SCT:	Mar1010a
!!!SCA:	Mar1010a
!!!voices:	4
!!!voices-OPR:	4
**kern	**kern	**kern	**kern
*staff4	*staff3	*staff2	*staff1
*Ivox	*Ivox	*Ivox	*Ivox
*I"Bassus	*I"Tenor	*I"Contratenor	*I"Superius
*I'B	*I'T	*I'Ct	*I'S
*>[A,B,C]	*>[A,B,C]	*>[A,B,C]	*>[A,B,C]
*>A	*>A	*>A	*>A
*clefF4	*clefGv2	*clefGv2	*clefG2
*k[]	*k[]	*k[]	*k[]
*M2/1	*M2/1	*M2/1	*M2/1
*met(C)	*met(C)	*met(C)	*met(C)
!!section: Kyrie I
!!!OMD: Kyrie I
=1-	=1-	=1-	=1-
0A	0r	1A	0a
.	.	1A	.
=2	=2	=2	=2
0c	0r	1A	1e
.	.	[1c	1e
=3	=3	=3	=3
1F	0A	2c\]	1a
.	.	2A/	.
1c	.	2c\	1a
.	.	2d\	.
=4	=4	=4	=4
1.B	1E	1e	2.g/
.	.	.	4a/
.	1E	[1g	2b\
[2e\	.	.	[2cc\
=5	=5	=5	=5
2e\]	1A	2g\]	2cc\]
2c\	.	2f\	2a/
2.c\	1A	2f\	2cc\
.	.	2e\	2dd\
4B\	.	.	.
=6	=6	=6	=6
0d	1G	1g	1b
.	2D/	2f\	[1dd
.	[2G/	[2d\	.
=7	=7	=7	=7
1G	4G/]	2d\]	2dd\]
.	4A/	.	.
.	2B\	1e	4cc\
.	.	.	4b\
1F	2c\	.	1a
.	4B\	2d\	.
.	4A/	.	.
=8	=8	=8	=8
2E\	1G	1e	1b
1G	.	.	.
.	1C	2.c\	2e/
2A\	.	.	2f/
.	.	4d\	.
=9	=9	=9	=9
2G\	0r	2.e\	2.g/
1E	.	.	.
.	.	4d\	4f/
.	.	2c\	2e/
2D\	.	2f\	[2a/
=10	=10	=10	=10
2F\	0r	2d\	2a/]
2E\	.	2.e\	2.g/
1C	.	.	.
.	.	4d\	4f/
.	.	[2c\	2e/
=11	=11	=11	=11
1G	1r	2c\]	1d
.	.	2B\	.
2r	2e\	2c\	1c
2A\	2c\	2e\	.
=12	=12	=12	=12
2B\	2d\	2d\	1r
2d\	2B\	1g	.
2.c\	1A	.	1cc
.	.	2f#i\	.
4B\	.	.	.
=13	=13	=13	=13
1d	1G	1g	2b\
.	.	.	2.g/
1G	2r	2e\	.
.	.	.	4a/
.	2G/	2d\	2b\
=14	=14	=14	=14
2A\	2c\	2f\	2cc\
2G\	2d\	1g	4b\
.	.	.	4a/
2E\	2e\	.	2g/
[2F\	2A/	[2f\	[2a/
=15	=15	=15	=15
2F\]	2c\	2f\]	2a/]
2G\	2B\	2e\	1g
1D	1A	1d	.
.	.	.	2f#i/
=16	=16	=16	=16
0dl	0Gl	0dl	0gl
!!LO:LB:i:g=z
=17||	=17||	=17||	=17||
*>B	*>B	*>B	*>B
*clefF4	*clefGv2	*clefGv2	*clefG2
*k[]	*k[]	*k[]	*k[]
*M2/1	*M2/1	*M2/1	*M2/1
*met(C)	*met(C)	*met(C)	*met(C)
!!section: Christe
!!!OMD: Christe
1C	1.c	1e	1g
2.F\	.	1f	1a
.	2d\	.	.
4E\	.	.	.
=18	=18	=18	=18
1C	1e	1g	2g/
.	.	.	2.cc\
1F	2c\	1a	.
.	.	.	4a/
.	[2f\	.	[2dd\
=19	=19	=19	=19
1A	4f\]	1f	4dd\]
.	4e\	.	4cc\
.	2c\	.	1cc
1G	1d	1g	.
.	.	.	2b\
=20	=20	=20	=20
1C	1c	1e	1cc
[1G	1r	2d\	2b\
.	.	2e\	2cc\
=21	=21	=21	=21
1G]	1B	2d\	1dd
.	.	1g	.
1A	1c	.	2cc\
.	.	2f#i\	2a/
=22	=22	=22	=22
1G	1d	0g	4b\
.	.	.	4a/
.	.	.	4g/
.	.	.	4f/
2C/	2c\	.	2e/
2G\	2d\	.	2d/
=23	=23	=23	=23
2F\	2A/	0a	1f
2D\	1d	.	.
1A	.	.	1e
.	2c#i\	.	.
=24	=24	=24	=24
0D	2.d\	1.f	2r
.	.	.	2a/
.	4c\	.	.
.	2d\	.	2b\
.	2f\	[2a\	2dd\
=25	=25	=25	=25
1A	2e\	4a\]	2cc\
.	.	4g\	.
.	4d\	2a\	4b\
.	4e\	.	4cc\
2D\	4f\	2f\	4dd\
.	4e\	.	4cc\
[2G\	4d\	[2g\	4b\
.	4c\	.	4a/
=26	=26	=26	=26
2G\]	2d\	4g\]	2b\
.	.	4f\	.
2F\	2A/	2d\	1a
1E	1B	1e	.
.	.	.	2g#i/
=27	=27	=27	=27
0Al	0Al	0cl	0al
!!LO:LB:i:g=z
=28||	=28||	=28||	=28||
*>C	*>C	*>C	*>C
*clefF4	*clefGv2	*clefGv2	*clefG2
*k[]	*k[]	*k[]	*k[]
*M3/1	*M3/1	*M3/1	*M3/1
*met(C.)	*met(C.)	*met(C.)	*met(C.)
!!section: Kyrie II
!!!OMD: Kyrie II
1E	0.r	1e	0.r
2G\	.	4d\	.
.	.	2g\	.
2A\	.	.	.
.	.	4f\	.
2.B\	.	4g\	.
.	.	4e\	.
.	.	2d\	.
4A\	.	.	.
=29	=29	=29	=29
4.c\	1E	2c\	0.r
8B\	.	.	.
2G\	.	2B\	.
2E\	2G/	2.c\	.
2F\	2A/	.	.
.	.	4B\	.
1D	1B	1d	.
=30	=30	=30	=30
1C	2.c\	1G	1e
.	4d\	.	.
2c\	2e\	1r	2g/
2F\	2f\	.	2a/
1G	1d	1g	1b
=31	=31	=31	=31
2C/	1.c	2e\	1cc
2E\	.	2g\	.
2F\	.	4f\	2r
.	.	4a\	.
2G\	2r	4d\	2b\
.	.	2g\	.
2A\	2r	.	2cc\
.	.	4f\	.
2G\	2B\	2g\	2dd\
=32	=32	=32	=32
4A\	2c\	4e\	4cc\
2F\	.	4f\	2a/
.	2d\	2a\	.
4D\	.	.	4f/
4E\	2c\	4g\	4g/
4F\	.	4f\	4a/
2G\	2B\	4d\	2g/
.	.	4e\	.
1D	1A	4f\	4a/
.	.	4.d\	4.f#i/
.	.	8c\	8e/
.	.	4d\	4f#i/
=33	=33	=33	=33
2d\	2.G/	2B\	2g/
2r	.	2e\	4b\
.	4A/	.	4cc\
2d\	4B\	4d\	4dd\
.	2G/	2g\	2b\
4B\	.	.	.
4A\	2A/	2f\	2cc\
2F\	.	.	.
.	4F/	2d\	4a/
2G\	2E/	.	2g/
.	.	4c#i\	.
=34	=34	=34	=34
2A\	2D/	2d\	4f/
.	.	.	2a/
2D\	2F/	4.A/	.
.	.	.	4g/
.	.	8B\	.
4C/	2G/	4c\	2e/
2G\	.	4B\	.
.	2A/	4c\	2d/
4F\	.	4.d\	.
2D\	2B\	.	2r
.	.	8e\	.
.	.	4f\	.
2C/	2c\	4g\	2e/
.	.	4e\	.
=35	=35	=35	=35
2D\	1A	4d\	4.f/
.	.	4.a\	.
.	.	.	8e/
2F\	.	.	4d/
.	.	8g\	.
.	.	4f\	4c/
2G\	2E/	4e\	2B/
.	.	4.g\	.
2E\	2G/	.	2e/
.	.	8f\	.
.	.	4e\	.
1A	1F	4d\	4f/
.	.	4.f\	2d/
.	.	8g\	.
.	.	4a\	8c/L
.	.	.	8d/J
=36	=36	=36	=36
2c\	0.El	2.g\	0.el
2.B\	.	.	.
.	.	2e\	.
4G\	.	8d\L	.
.	.	8c\J	.
1.Gl	.	1.Bl	.
==	==	==	==
*-	*-	*-	*-
!!!RDF**kern: l=long note in original notation
!!!RDF**kern: i=editorial accidental
!!!ENC:	Chris Gage 10-22-2014
!!!END:	2015/03/07/
!!!EED:	Jesse Rodin
!!!EEV:	2015/03/09/
!!!ONB:	Translated from MusicXML and edited on 2015/03/09/ by Craig Sapp
!!muse2ps: T^@{OPR}^u^@{ONM}{. }@{OTL}^C^@{COM}^i2I150v85,85,85,150Q16
